X:1845
T:Bonnie Tammie Scolla
R:Gånglåt
S:Efter Kevin Henderson
O:Shetland
Z:ABC-transkribering av Johan Ronström
M:4/4
L:1/8
K:D
|: D3/2E/2FA BAF2 | EDEF EDEF |
   D3/2E/2FA BAF2 | AFEF D2D2 :|
|: d3/2c/2BA BAF2 | EDEF EDEF |
   d3/2c/2BA BAF2 | AFEF D2D2 :|
(:musicend:)

Spelas även i A

!!!Text komponerad av barnkursen i Hovra 2010:
[@
Tidig morgon, sent i säng
Solen skiner, regnet öser
Jag mår jättebra idag,
god mat i min mage

Dansa, leka hela dan
Kom till Hovra, kom till Hovra
Bönehus och hörrgårdsbus
Alla gillar godis

Under hökens vingar kom,
leker vi på Hovrastämman
Alla vänner äter mat,
fikar, dansar folkdans

Dansa, leka hela dan
Kom till Hovra, kom till Hovra
Bönehus och hörrgårdsbus
Alla gillar godis
@]
(:music:)
